X: 14
T: Lasses have at ye
%R: jig
B: Chas & Sam Thompson "Twenty Four Country Dances for the Year 1765", London 1765, p.7 #2
F: http://www.vwml.org/browse/browse-collections-dance-tune-books/browse-thompsons1765#
Z: 2014 John Chambers <jc:trillian.mit.edu> (added dance description)
N: The 'h' in "both" is printed as ":h" above the 't'.
M: 6/8
L: 1/8
K: G
% - - - - - - - - - - - - - - - - - - - - - - - - - - - - -
|:\
GBB dBB | GBB g2B | FAA dAA | FAA f2A |\
GBB dBd | gdg bgb | afd (e/f/g)B | Agf g3 :|
|:\
(f/g/a)f (f/g/a)d | (f/g/a) a2d | bag fdf | eA^c d2B |\
cee caa | Bdd Bgg | bgd (e/f/g)B | Agf g3 :|
% - - - - - - - - - - Dance description - - - - - - - - - -
%%begintext align
%% Foot it Hands 3 with the 2d Wo: .|. the same with
%% the 2d Man :|. Cast off and lead thro' the 3d Cu: and
%% Cast up .|: lead thro' the top Cu: and cast off :|: right
%% hands across at bottom .|. left at top :||. lead out on both
%% sides .||: :||:
%%endtext
